X: 243
T: The Mouth Of The Tobique
R: reel
M: 4/4
L: 1/8
K:Gmaj
|:(3DEF|"G"GFGA Bded|BdBG DGBG|"D"ABAF DFAF|"G"GABc "D"d2(3DEF|
"G"GFGA Bded|BdBG DGBG|"D"ABAF DFAF|"G"GBAF G2:|
|:ef|"G"gfga gdBg|"D"fdAd f2gf|"C"ecAG "D"FGAF|"G"GABc "D"d2ef|
"G"gfga gdBg|"D"fdAd f2gf|"C"ecAG FGAF|"G"GBAF G2:|
|:(3DEF|"G"G2 BG G"C"cGG|"G"BGG"C"c GG"G"BG|"D"FGAB "C"cDEF|"G"GABc "D"d2(3DEF|
"G"G2BG G"C"cGG|"G"BGG"C"c GG"G"BG|"D"FGAB "C"cDEF|"G"GBAF G2:|


